X:14
T:Congress, The
S:The Session: https://thesession.org/tunes/208#setting46634
C:Traditional
R:reel
K:Ador
M:4/4
L:1/8
Q:1/4=120
|:"Am"eAAG ABcd|"Am"eaaf "G"gedg|"Am"eAcA eAcA|"G"BAGA "Em"Bcdg|
|"Am"eAAG ABcd|"Am"eaaf "G"gedB|"C"cBcd eged|"G"cABG "Am"A2Bd:|
|:"Am"eaag a2ag|"Am"eaag egdg|"G"egdg egdg|"Em"eaaf "G"gedg|
|"Am"eaag a2ag|"Am"eaag "G"egdB|"C"cBcd eged|"G"cABG "Am"A2Bd:|

